assets/images/icon-download.svg

<?xml version="1.0" encoding="UTF-8" standalone="no"?>
<svg width="42px" height="77px" viewBox="0 0 42 77" version="1.1" xmlns="http://www.w3.org/2000/svg" xmlns:xlink="http://www.w3.org/1999/xlink" xmlns:sketch="http://www.bohemiancoding.com/sketch/ns">
    <!-- Generator: Sketch 3.5.1 (25234) - http://www.bohemiancoding.com/sketch -->
    <title>Untitled 2</title>
    <desc>Created with Sketch.</desc>
    <defs></defs>
    <g id="Page-1" stroke="none" stroke-width="1" fill="none" fill-rule="evenodd" sketch:type="MSPage">
        <path d="M23.625,29 L28.875,29 L21,36.875 L13.125,29 L18.375,29 L18.375,15.875 L23.625,15.875 L23.625,29 Z M31.5,8 C34.3164203,7.97265611 36.7431539,8.70409411 38.7802734,10.1943359 C40.817393,11.6845778 41.8906245,14.0156091 42,17.1875 C41.8906245,20.2500153 40.817393,22.5468673 38.7802734,24.078125 C36.7431539,25.6093827 34.3164203,26.375 31.5,26.375 L26.25,26.375 L26.25,22.9707031 L31.5,22.9707031 C32.3203166,23.0800787 33.6533111,22.8066439 35.4990234,22.1503906 C37.3447358,21.4941373 38.376952,19.839857 38.5957031,17.1875 C38.4316398,14.6718624 37.5156333,13.0585973 35.8476562,12.3476562 C34.1796792,11.6367152 32.7304749,11.3222652 31.5,11.4042969 L28.0957031,11.4042969 L28.0957031,8.24609375 C28.0683592,7.75390379 27.4736386,6.88574841 26.3115234,5.64160156 C25.1494083,4.39745472 22.9414225,3.6933602 19.6875,3.52929688 C17.4453013,3.58398465 15.5039145,4.30858678 13.8632812,5.703125 C12.222648,7.09766322 11.3613285,8.73827182 11.2792969,10.625 L11.2792969,14.0292969 L7.875,14.0292969 C5.79686461,14.1933602 4.51172121,14.883783 4.01953125,16.1005859 C3.52734129,17.3173889 3.32226521,18.1171856 3.40429688,18.5 C3.32226521,19.0195338 3.53417716,19.8603458 4.04003906,21.0224609 C4.54590097,22.1845761 5.8242085,22.8339837 7.875,22.9707031 L15.75,22.9707031 L15.75,26.375 L7.875,26.375 C5.24998688,26.2929683 3.28125656,25.4794999 1.96875,23.9345703 C0.656243437,22.3896407 0,20.5918071 0,18.5410156 C0,16.4902241 0.663079307,14.6787188 1.98925781,13.1064453 C3.31543632,11.5341718 5.27733076,10.7070317 7.875,10.625 C7.95703166,7.80857967 9.12596528,5.38184612 11.3818359,3.34472656 C13.6377066,1.307607 16.4062336,0.234375547 19.6875,0.125 C24.3086169,0.37109498 27.4599525,1.5400286 29.1416016,3.63183594 C30.8232506,5.72364327 31.6093755,7.1796834 31.5,8 L31.5,8 Z" id="" fill="#379199" sketch:type="MSShapeGroup"></path>
        <path d="M23.625,69 L28.875,69 L21,76.875 L13.125,69 L18.375,69 L18.375,55.875 L23.625,55.875 L23.625,69 Z M31.5,48 C34.3164203,47.9726561 36.7431539,48.7040941 38.7802734,50.1943359 C40.817393,51.6845778 41.8906245,54.0156091 42,57.1875 C41.8906245,60.2500153 40.817393,62.5468673 38.7802734,64.078125 C36.7431539,65.6093827 34.3164203,66.375 31.5,66.375 L26.25,66.375 L26.25,62.9707031 L31.5,62.9707031 C32.3203166,63.0800787 33.6533111,62.8066439 35.4990234,62.1503906 C37.3447358,61.4941373 38.376952,59.839857 38.5957031,57.1875 C38.4316398,54.6718624 37.5156333,53.0585973 35.8476562,52.3476562 C34.1796792,51.6367152 32.7304749,51.3222652 31.5,51.4042969 L28.0957031,51.4042969 L28.0957031,48.2460938 C28.0683592,47.7539038 27.4736386,46.8857484 26.3115234,45.6416016 C25.1494083,44.3974547 22.9414225,43.6933602 19.6875,43.5292969 C17.4453013,43.5839846 15.5039145,44.3085868 13.8632812,45.703125 C12.222648,47.0976632 11.3613285,48.7382718 11.2792969,50.625 L11.2792969,54.0292969 L7.875,54.0292969 C5.79686461,54.1933602 4.51172121,54.883783 4.01953125,56.1005859 C3.52734129,57.3173889 3.32226521,58.1171856 3.40429688,58.5 C3.32226521,59.0195338 3.53417716,59.8603458 4.04003906,61.0224609 C4.54590097,62.1845761 5.8242085,62.8339837 7.875,62.9707031 L15.75,62.9707031 L15.75,66.375 L7.875,66.375 C5.24998688,66.2929683 3.28125656,65.4794999 1.96875,63.9345703 C0.656243437,62.3896407 0,60.5918071 0,58.5410156 C0,56.4902241 0.663079307,54.6787188 1.98925781,53.1064453 C3.31543632,51.5341718 5.27733076,50.7070317 7.875,50.625 C7.95703166,47.8085797 9.12596528,45.3818461 11.3818359,43.3447266 C13.6377066,41.307607 16.4062336,40.2343755 19.6875,40.125 C24.3086169,40.371095 27.4599525,41.5400286 29.1416016,43.6318359 C30.8232506,45.7236433 31.6093755,47.1796834 31.5,48 L31.5,48 Z" id="" fill="#6CC2CA" sketch:type="MSShapeGroup"></path>
    </g>
</svg>

<svg width="42" height="77" viewBox="0 0 42 77" xmlns="http://www.w3.org/2000/svg"><title>Untitled 2</title><g fill="none" fill-rule="evenodd"><path d="M23.625 29h5.25L21 36.875 13.125 29h5.25V15.875h5.25V29zM31.5 8c2.816-.027 5.243.704 7.28 2.194s3.11 3.822 3.22 6.993c-.11 3.063-1.183 5.36-3.22 6.89-2.037 1.532-4.464 2.298-7.28 2.298h-5.25V22.97h5.25c.82.11 2.153-.163 4-.82 1.845-.656 2.877-2.31 3.096-4.962-.164-2.516-1.08-4.13-2.748-4.84-1.668-.71-3.118-1.026-4.348-.944h-3.404V8.246c-.028-.492-.622-1.36-1.784-2.604-1.163-1.245-3.37-1.95-6.625-2.113-2.242.054-4.183.78-5.824 2.173-1.64 1.395-2.502 3.035-2.584 4.922v3.404H7.874c-2.078.163-3.363.854-3.855 2.07-.493 1.217-.698 2.017-.616 2.4-.082.52.13 1.36.636 2.522.506 1.163 1.784 1.812 3.835 1.95h7.875v3.403H7.875c-2.625-.082-4.594-.896-5.906-2.44C.655 22.39 0 20.592 0 18.54c0-2.05.663-3.86 1.99-5.434 1.325-1.572 3.287-2.4 5.885-2.48.082-2.817 1.25-5.244 3.507-7.28 2.256-2.038 5.024-3.112 8.306-3.22 4.62.245 7.772 1.414 9.454 3.506C30.822 5.724 31.61 7.18 31.5 8z" fill="#379199"/><path d="M23.625 69h5.25L21 76.875 13.125 69h5.25V55.875h5.25V69zM31.5 48c2.816-.027 5.243.704 7.28 2.194s3.11 3.822 3.22 6.993c-.11 3.063-1.183 5.36-3.22 6.89-2.037 1.532-4.464 2.298-7.28 2.298h-5.25V62.97h5.25c.82.11 2.153-.163 4-.82 1.845-.656 2.877-2.31 3.096-4.962-.164-2.516-1.08-4.13-2.748-4.84-1.668-.71-3.118-1.026-4.348-.944h-3.404v-3.158c-.028-.492-.622-1.36-1.784-2.604-1.163-1.245-3.37-1.95-6.625-2.113-2.242.054-4.183.78-5.824 2.173-1.64 1.395-2.502 3.035-2.584 4.922v3.404H7.874c-2.078.163-3.363.854-3.855 2.07-.493 1.217-.698 2.017-.616 2.4-.082.52.13 1.36.636 2.522.506 1.163 1.784 1.812 3.835 1.95h7.875v3.403H7.875c-2.625-.082-4.594-.896-5.906-2.44C.655 62.39 0 60.592 0 58.54c0-2.05.663-3.86 1.99-5.434 1.325-1.572 3.287-2.4 5.885-2.48.082-2.817 1.25-5.244 3.507-7.28 2.256-2.038 5.024-3.112 8.306-3.22 4.62.245 7.772 1.414 9.454 3.506C30.822 45.724 31.61 47.18 31.5 48z" fill="#6CC2CA"/></g></svg>
